public/logo.svg

<svg width="122" height="21" xmlns="http://www.w3.org/2000/svg" fill="none">

 <g>
  <title>Layer 1</title>
  <path id="svg_2" fill="white" d="m66.2858,15l0,-11.63639l4.5909,0c0.8826,0 1.6345,0.16856 2.2557,0.50568c0.6212,0.33333 1.0947,0.79735 1.4204,1.39204c0.3296,0.59091 0.4943,1.27273 0.4943,2.04546c0,0.77272 -0.1666,1.45454 -0.5,2.04545c-0.3333,0.59091 -0.8162,1.05116 -1.4488,1.38066c-0.6288,0.3296 -1.3902,0.4943 -2.2841,0.4943l-2.9261,0l0,-1.97155l2.5284,0c0.4734,0 0.8636,-0.08144 1.1704,-0.24432c0.3106,-0.16666 0.5417,-0.39583 0.6932,-0.6875c0.1553,-0.29545 0.233,-0.63447 0.233,-1.01704c0,-0.38637 -0.0777,-0.72349 -0.233,-1.01137c-0.1515,-0.29166 -0.3826,-0.51704 -0.6932,-0.67613c-0.3106,-0.16288 -0.7045,-0.24432 -1.1818,-0.24432l-1.6591,0l0,9.62503l-2.4602,0zm11.0213,0l-2.6364,0l4.0171,-11.63639l3.1704,0l4.0114,11.63639l-2.6364,0l-2.9148,-8.9773l-0.0909,0l-2.9204,8.9773zm-0.1648,-4.5739l6.2273,0l0,1.9205l-6.2273,0l0,-1.9205zm8.2585,-7.06249l2.7557,0l2.6534,5.01136l0.1137,0l2.6534,-5.01136l2.7557,0l-4.2444,7.52269l0,4.1137l-2.4431,0l0,-4.1137l-4.2444,-7.52269z"/>
  <path id="svg_3" fill="white" d="m106.149,13.8617l-0.003,0.0045l-0.003,0.0045c-0.178,0.252 -0.577,0.3261 -0.889,0.1058c-0.25,-0.1763 -0.325,-0.5691 -0.112,-0.8795c0.317,-0.4043 0.547,-0.8769 0.699,-1.339c0.157,-0.481 0.23,-1.0275 0.228,-1.5636c-0.003,-0.53603 -0.082,-1.08179 -0.245,-1.56108c-0.156,-0.46038 -0.391,-0.93052 -0.713,-1.33138c-0.216,-0.30818 -0.145,-0.70178 0.103,-0.88072c0.309,-0.22354 0.709,-0.15373 0.889,0.09638l0.004,0.00449l0.003,0.00441c0.4,0.52754 0.728,1.11367 0.924,1.68873c0.207,0.67647 0.338,1.33084 0.342,1.97227c0.003,0.6749 -0.061,1.3138 -0.309,1.9427c-0.27,0.6849 -0.531,1.2098 -0.918,1.7315zm2.893,1.2528l0.007,-0.0111l0.008,-0.0115c0.886,-1.4206 1.398,-3.1349 1.388,-4.9208c-0.009,-1.78541 -0.539,-3.49373 -1.44,-4.90465c-0.195,-0.30976 -0.108,-0.67601 0.222,-0.91385c0.221,-0.15973 0.636,-0.10317 0.882,0.22692c1.018,1.61463 1.633,3.56647 1.643,5.58468c0.011,2.087 -0.582,3.9755 -1.583,5.6019c-0.232,0.3189 -0.587,0.4082 -0.892,0.2275c-0.332,-0.2429 -0.392,-0.6566 -0.235,-0.8791zm5.19,-12.65727l0.009,0.01725l0.01,0.01649c1.379,2.24821 2.145,4.84145 2.16,7.64843c0.015,2.8056 -0.723,5.4057 -2.076,7.6678c-0.208,0.3337 -0.558,0.4278 -0.914,0.2625c-0.323,-0.2107 -0.41,-0.5599 -0.241,-0.9126c1.152,-2.0447 1.867,-4.4541 1.854,-7.0104c-0.014,-2.54495 -0.679,-4.95053 -1.931,-6.99534c-0.169,-0.34915 -0.085,-0.69688 0.234,-0.91c0.386,-0.18412 0.761,-0.04916 0.895,0.21587zm4.083,-2.13958l0.006,0.01179l0.007,0.01143c1.671,2.88853 2.653,6.19097 2.672,9.77403c0.019,3.5794 -0.926,6.889 -2.563,9.793c-0.208,0.3299 -0.556,0.4223 -0.91,0.2577c-0.322,-0.21 -0.41,-0.5577 -0.243,-0.9092c1.577,-2.6916 2.427,-5.8101 2.409,-9.1345c-0.018,-3.33304 -0.975,-6.4394 -2.504,-9.1045c-0.192,-0.38905 -0.057,-0.77009 0.211,-0.90558c0.392,-0.19887 0.779,-0.06387 0.915,0.20583z" clip-rule="evenodd" fill-rule="evenodd"/>
  <text transform="matrix(0.717337 0 0 0.711597 0.130651 1.222)" stroke="null" xml:space="preserve" text-anchor="start" font-family="Noto Sans JP" font-size="24" stroke-width="0" id="svg_5" y="18.98955" x="-1.57618" fill="#999999">THIAGO</text>
 </g>
</svg>

<svg width="122" height="21" viewBox="0 0 122 21" fill="none" xmlns="http://www.w3.org/2000/svg">
<path d="M2.35538 15V3.36361H6.2872C7.19629 3.36361 7.9425 3.51891 8.52583 3.82951C9.10917 4.13633 9.54099 4.55868 9.82129 5.09656C10.1016 5.63444 10.2417 6.24618 10.2417 6.93179C10.2417 7.61739 10.1016 8.22535 9.82129 8.75565C9.54099 9.28595 9.11106 9.70262 8.53152 10.0057C7.95197 10.3049 7.21144 10.4545 6.30993 10.4545H3.12811V9.18179H6.26447C6.88568 9.18179 7.38568 9.09088 7.76447 8.90906C8.14705 8.72724 8.42356 8.46967 8.59402 8.13633C8.76826 7.79921 8.85538 7.3977 8.85538 6.93179C8.85538 6.46588 8.76826 6.05868 8.59402 5.7102C8.41977 5.36171 8.14137 5.09277 7.75879 4.90338C7.37621 4.7102 6.87053 4.61361 6.24174 4.61361H3.76447V15H2.35538ZM7.83265 9.7727L10.6963 15H9.05993L6.24174 9.7727H7.83265ZM22.4079 9.18179C22.4079 10.4091 22.1863 11.4697 21.7432 12.3636C21.3 13.2575 20.692 13.9469 19.9193 14.4318C19.1466 14.9166 18.264 15.1591 17.2716 15.1591C16.2791 15.1591 15.3966 14.9166 14.6238 14.4318C13.8511 13.9469 13.2432 13.2575 12.8 12.3636C12.3568 11.4697 12.1352 10.4091 12.1352 9.18179C12.1352 7.95451 12.3568 6.89391 12.8 5.99997C13.2432 5.10603 13.8511 4.41664 14.6238 3.93179C15.3966 3.44694 16.2791 3.20451 17.2716 3.20451C18.264 3.20451 19.1466 3.44694 19.9193 3.93179C20.692 4.41664 21.3 5.10603 21.7432 5.99997C22.1863 6.89391 22.4079 7.95451 22.4079 9.18179ZM21.0443 9.18179C21.0443 8.17421 20.8757 7.32383 20.5386 6.63065C20.2053 5.93747 19.7526 5.41285 19.1807 5.05679C18.6125 4.70073 17.9761 4.5227 17.2716 4.5227C16.567 4.5227 15.9288 4.70073 15.3568 5.05679C14.7886 5.41285 14.336 5.93747 13.9988 6.63065C13.6655 7.32383 13.4988 8.17421 13.4988 9.18179C13.4988 10.1894 13.6655 11.0397 13.9988 11.7329C14.336 12.4261 14.7886 12.9507 15.3568 13.3068C15.9288 13.6628 16.567 13.8409 17.2716 13.8409C17.9761 13.8409 18.6125 13.6628 19.1807 13.3068C19.7526 12.9507 20.2053 12.4261 20.5386 11.7329C20.8757 11.0397 21.0443 10.1894 21.0443 9.18179ZM34.1409 6.99997H32.7318C32.6485 6.59467 32.5026 6.23861 32.2943 5.93179C32.0898 5.62497 31.8398 5.36739 31.5443 5.15906C31.2526 4.94694 30.9288 4.78785 30.5727 4.68179C30.2166 4.57573 29.8454 4.5227 29.4591 4.5227C28.7545 4.5227 28.1163 4.70073 27.5443 5.05679C26.9761 5.41285 26.5235 5.93747 26.1863 6.63065C25.853 7.32383 25.6863 8.17421 25.6863 9.18179C25.6863 10.1894 25.853 11.0397 26.1863 11.7329C26.5235 12.4261 26.9761 12.9507 27.5443 13.3068C28.1163 13.6628 28.7545 13.8409 29.4591 13.8409C29.8454 13.8409 30.2166 13.7878 30.5727 13.6818C30.9288 13.5757 31.2526 13.4185 31.5443 13.2102C31.8398 12.9981 32.0898 12.7386 32.2943 12.4318C32.5026 12.1212 32.6485 11.7651 32.7318 11.3636H34.1409C34.0348 11.9583 33.8416 12.4905 33.5613 12.9602C33.281 13.4299 32.9326 13.8295 32.5159 14.1591C32.0992 14.4848 31.6314 14.7329 31.1125 14.9034C30.5973 15.0738 30.0462 15.1591 29.4591 15.1591C28.4666 15.1591 27.5841 14.9166 26.8113 14.4318C26.0386 13.9469 25.4307 13.2575 24.9875 12.3636C24.5443 11.4697 24.3227 10.4091 24.3227 9.18179C24.3227 7.95451 24.5443 6.89391 24.9875 5.99997C25.4307 5.10603 26.0386 4.41664 26.8113 3.93179C27.5841 3.44694 28.4666 3.20451 29.4591 3.20451C30.0462 3.20451 30.5973 3.28974 31.1125 3.4602C31.6314 3.63065 32.0992 3.88065 32.5159 4.2102C32.9326 4.53595 33.281 4.93368 33.5613 5.40338C33.8416 5.86929 34.0348 6.40148 34.1409 6.99997ZM36.4179 15V3.36361H37.827V9.13633H37.9633L43.1906 3.36361H45.0315L40.1452 8.61361L45.0315 15H43.327L39.2815 9.59088L37.827 11.2272V15H36.4179ZM46.8554 15V3.36361H53.8781V4.61361H48.2645V8.54542H53.5145V9.79542H48.2645V13.75H53.969V15H46.8554ZM55.7815 4.61361V3.36361H64.5088V4.61361H60.8497V15H59.4406V4.61361H55.7815Z" fill="#959595"/>
<path d="M66.2858 15V3.36361H70.8767C71.7593 3.36361 72.5112 3.53217 73.1324 3.86929C73.7536 4.20262 74.2271 4.66664 74.5528 5.26133C74.8824 5.85224 75.0471 6.53406 75.0471 7.30679C75.0471 8.07951 74.8805 8.76133 74.5471 9.35224C74.2138 9.94315 73.7309 10.4034 73.0983 10.7329C72.4695 11.0625 71.7081 11.2272 70.8142 11.2272H67.8881V9.25565H70.4165C70.8899 9.25565 71.2801 9.17421 71.5869 9.01133C71.8975 8.84467 72.1286 8.6155 72.2801 8.32383C72.4354 8.02838 72.5131 7.68936 72.5131 7.30679C72.5131 6.92042 72.4354 6.5833 72.2801 6.29542C72.1286 6.00376 71.8975 5.77838 71.5869 5.61929C71.2763 5.45641 70.8824 5.37497 70.4051 5.37497H68.746V15H66.2858ZM77.3071 15H74.6707L78.6878 3.36361H81.8582L85.8696 15H83.2332L80.3184 6.0227H80.2275L77.3071 15ZM77.1423 10.4261H83.3696V12.3466H77.1423V10.4261ZM85.4008 3.36361H88.1565L90.8099 8.37497H90.9236L93.577 3.36361H96.3327L92.0883 10.8863V15H89.6452V10.8863L85.4008 3.36361Z" fill="white"/>
<path fill-rule="evenodd" clip-rule="evenodd" d="M106.149 13.8617L106.146 13.8662L106.143 13.8707C105.965 14.1227 105.566 14.1968 105.254 13.9765C105.004 13.8002 104.929 13.4074 105.142 13.097C105.459 12.6927 105.689 12.2201 105.841 11.758C105.998 11.277 106.071 10.7305 106.069 10.1944C106.066 9.65837 105.987 9.11261 105.824 8.63332C105.668 8.17294 105.433 7.7028 105.111 7.30194C104.895 6.99376 104.966 6.60016 105.214 6.42122C105.523 6.19768 105.923 6.26749 106.103 6.5176L106.107 6.52209L106.11 6.5265C106.51 7.05404 106.838 7.64017 107.034 8.21523C107.241 8.8917 107.372 9.54607 107.376 10.1875C107.379 10.8624 107.315 11.5013 107.067 12.1302C106.797 12.8151 106.536 13.34 106.149 13.8617ZM109.042 15.1145L109.049 15.1034L109.057 15.0919C109.943 13.6713 110.455 11.957 110.445 10.1711C110.436 8.38569 109.906 6.67737 109.005 5.26645C108.81 4.95669 108.897 4.59044 109.227 4.3526C109.448 4.19287 109.863 4.24943 110.109 4.57952C111.127 6.19415 111.742 8.14599 111.752 10.1642C111.763 12.2512 111.17 14.1397 110.169 15.7661C109.937 16.085 109.582 16.1743 109.277 15.9936C108.945 15.7507 108.885 15.337 109.042 15.1145ZM114.232 2.45723L114.241 2.47448L114.251 2.49097C115.63 4.73918 116.396 7.33242 116.411 10.1394C116.426 12.945 115.688 15.5451 114.335 17.8072C114.127 18.1409 113.777 18.235 113.421 18.0697C113.098 17.859 113.011 17.5098 113.18 17.1571C114.332 15.1124 115.047 12.703 115.034 10.1467C115.02 7.60175 114.355 5.19617 113.103 3.15136C112.934 2.80221 113.018 2.45448 113.337 2.24136C113.723 2.05724 114.098 2.1922 114.232 2.45723ZM118.315 0.317655L118.321 0.32944L118.328 0.340875C119.999 3.2294 120.981 6.53184 121 10.1149C121.019 13.6943 120.074 17.0039 118.437 19.9079C118.229 20.2378 117.881 20.3302 117.527 20.1656C117.205 19.9556 117.117 19.6079 117.284 19.2564C118.861 16.5648 119.711 13.4463 119.693 10.1219C119.675 6.78886 118.718 3.6825 117.189 1.0174C116.997 0.628348 117.132 0.247314 117.4 0.111823C117.792 -0.0870519 118.179 0.0479481 118.315 0.317655Z" fill="white"/>
</svg>
